icon-themes/sifr_svg/cmd/sc_flowchartshapes.flowchart-predefined-process.svg

<svg viewBox="0 0 16 16" xmlns="http://www.w3.org/2000/svg"><g fill="#555753"><path d="m1 1v14h14v-14zm2 2h2v10h-2zm3 0h4v10h-4zm5 0h2v10h-2z"/><path d="m3 3v10h10v-10z" opacity=".35"/></g></svg>

<svg xmlns="http://www.w3.org/2000/svg" viewBox="0 0 16 16">
  <path
     style="fill:#555753"
     d="M 1,1 V 15 H 15 V 1 Z M 3,3 H 5 V 13 H 3 Z m 3,0 h 4 V 13 H 6 Z m 5,0 h 2 v 10 h -2 z"
     />
  <path
     style="opacity:0.35;fill:#555753"
     d="M 3,3 V 13 H 13 V 3 Z"
     />
</svg>
